X:1
T:Charakteristischer Name: Menuett à quatre;
T:Charakteristischer Name: Menuett à quatre;
T:[ID 2-7a] Bezeichnung standardisiert: Menuett [Sammelbezeichnung]; Menuet \"Ahnlich in dieser Quelle: ID 1-65 (anm. S. Wascher);
T:Urheber unbekannt Erstbeleg: 1746 (Datum in der Quelle) Datum in der hier transkribierten Quelle: 1799
C:Urheber unbekannt
C:Erstbeleg: 1746 (Datum in der Quelle)
C:Datum in der hier transkribierten Quelle: 1799
%%score 1 2
L:1/8
M:3/4
K:Bb
V:1 treble nm="Violino Primo"
V:2 treble nm="Secondo"
V:1
 d3 cde | f3 edf | e2 d2 c2 | BABcde | d3 cde | f3 edf | e2 d2 c2 |{c} B6 :: b2 bbbb | a2 aaaa | %10
 g2 gabg | f4 f2 | e2 eeee | d3 e f2 | (3gfe d2 c2 |{c} B6 :| %16
V:2
 !fermata!B3 ABc | d3 cBd | c2 B2 E2 | DCDABc | B3 ABc | d3 cBd | c2 B2 E2 | D6 :: g2 gggg | %9
 f2 ffff | e2 efge | d4 d2 | c2 cccc | B3 c d2 | (3edc B2 F2 |{F} D6 :| %16

